src/Eleven-Dark/16/symbolic/categories/emoji-nature-symbolic.svg

<?xml version="1.0" encoding="UTF-8" standalone="no"?>
<svg
   width="16"
   height="16"
   version="1.1"
   id="svg2"
   sodipodi:docname="emoji-nature-symbolic.svg"
   inkscape:version="1.4.2 (ebf0e940d0, 2025-05-08)"
   xmlns:inkscape="http://www.inkscape.org/namespaces/inkscape"
   xmlns:sodipodi="http://sodipodi.sourceforge.net/DTD/sodipodi-0.dtd"
   xmlns="http://www.w3.org/2000/svg"
   xmlns:svg="http://www.w3.org/2000/svg">
  <defs
     id="defs2">
     <style
        id="current-color-scheme"
        type="text/css">
        .ColorScheme-Text { color:#dedede; }
        .ColorScheme-NeutralText { color:#f67400; }
        .ColorScheme-PositiveText { color:#37c837; }
        .ColorScheme-NegativeText { color:#f44336; }
        .ColorScheme-Highlight { color:#3daee9; }
     </style>
  </defs>
  <sodipodi:namedview
     id="namedview2"
     pagecolor="#ffffff"
     bordercolor="#000000"
     borderopacity="0.25"
     inkscape:showpageshadow="2"
     inkscape:pageopacity="0.0"
     inkscape:pagecheckerboard="0"
     inkscape:deskcolor="#d1d1d1"
     inkscape:zoom="49.6875"
     inkscape:cx="8"
     inkscape:cy="8"
     inkscape:window-width="1920"
     inkscape:window-height="1010"
     inkscape:window-x="0"
     inkscape:window-y="0"
     inkscape:window-maximized="1"
     inkscape:current-layer="svg2" />
  <path
     id="path1"
     style="fill:currentColor"
     class="ColorScheme-Text"
     d="M 15.476562 0.0078125 A 98.578 98.578 0 0 1 13.941406 1.453125 A 10 10 0 0 0 11 1 A 10 10 0 0 0 1 11 A 10 10 0 0 0 1.6035156 14.392578 A 10 10 0 0 0 5 15 A 10 10 0 0 0 10.513672 13.335938 A 2 2 0 0 1 10 12 A 2 2 0 0 1 12 10 A 2 2 0 0 1 13.333984 10.513672 A 10 10 0 0 0 15 5 A 10 10 0 0 0 14.570312 2.1308594 A 100.934 100.934 0 0 0 15.994141 0.77929688 L 15.476562 0.0078125 z M 10.996094 1.9980469 L 11 1.9980469 C 11.680532 2.001183 12.349891 2.1262515 13.007812 2.3007812 A 98.578 98.578 0 0 1 6.2128906 7.875 L 6.9121094 8.5742188 A 100.934 100.934 0 0 0 13.6875 2.9414062 C 13.868378 3.6156768 13.999537 4.3026375 14.001953 5 L 14.001953 5.0019531 C 14.001953 6.4459531 13.632797 7.8820625 12.966797 9.1640625 A 3 3 0 0 0 12 9 A 3 3 0 0 0 9 12 A 3 3 0 0 0 9.1640625 12.96875 A 9.077 9.077 0 0 1 5.0039062 14.001953 C 4.1349063 13.998953 3.2841719 13.795922 2.4511719 13.544922 C 2.2021719 12.714922 2.0010469 11.865047 1.9980469 10.998047 C 1.9980469 8.6420469 2.9677656 6.3007656 4.6347656 4.6347656 A 9.111 9.111 0 0 1 10.996094 1.9980469 z " />
</svg>

<svg xmlns="http://www.w3.org/2000/svg" width="16" height="16"><path d="M11 1A10 10 0 0 0 1 11a10 10 0 0 0 .604 3.393A10 10 0 0 0 5 15a10 10 0 0 0 5.514-1.664A2 2 0 0 1 10 12a2 2 0 0 1 2-2 2 2 0 0 1 1.334.514A10 10 0 0 0 15 5a10 10 0 0 0-.604-3.393A10 10 0 0 0 11 1zm-.004.998H11c.868.004 1.718.207 2.549.457.249.83.45 1.679.453 2.545v.002c0 1.444-.369 2.88-1.035 4.162A3 3 0 0 0 12 9a3 3 0 0 0-3 3 3 3 0 0 0 .164.969 9.077 9.077 0 0 1-4.16 1.033c-.869-.003-1.72-.206-2.553-.457-.249-.83-.45-1.68-.453-2.547 0-2.356.97-4.697 2.637-6.363a9.111 9.111 0 0 1 6.361-2.637z" style="font-variation-settings:normal" fill="#dedede"/><path d="M15.477.007a98.578 98.578 0 0 1-9.264 7.868l.7.7A100.934 100.934 0 0 0 15.995.78z" style="font-variation-settings:normal" fill="#dedede"/></svg>
